X: 130115
T: Martin Wynne's Strathspey
C: Martin Wynne
Z: B.Black
R: hornpipe
M: 4/4
L: 1/8
K: G
DEGA BGdB|AcBA GDB,C |DEGA BGDB, |CEDC B,G, G,2 :|
BGGB cAFA|GFED B,DGA |BGGB cAFD |ECA,C B,G, G,2 |
BGGB cAFA|BDGB ABcd |edge dBAG |ECA,C B,G, G,2 ||
